icon/mi/art-gallery.svg

<?xml version="1.0" encoding="UTF-8"?>
<svg viewBox="0 0 15 15" xmlns="http://www.w3.org/2000/svg" id="art-gallery" height="1em" width="1em">
  <path d="m10.71 3-2.86-2.849996c-.1945-.1960996-.511-.1973996-.7071-.0029-.001.001-.0019.0019-.0029.0029l-2.85 2.849996h-2.79c-.2761 0-.5.2239-.5.5v9c0 .2761.2239.5.5.5h12c.2761 0 .5-.2239.5-.5v-9c0-.2761-.2239-.5-.5-.5zm-3.21-1.79 1.79 1.79h-3.58zm5.5 10.79h-11v-8h11zm-8-5c-.5523 0-1-.4477-1-1s.4477-1 1-1 1 .4477 1 1-.4477 1-1 1zm7 4h-7.5l1.5-3 1.25 2.5 2.25-4.5z"/>
</svg>

<svg height="15" width="15" xmlns="http://www.w3.org/2000/svg"><path d="M10.71 3 7.85.15a.5.5 0 0 0-.707-.003L7.14.15 4.29 3H1.5a.5.5 0 0 0-.5.5v9a.5.5 0 0 0 .5.5h12a.5.5 0 0 0 .5-.5v-9a.5.5 0 0 0-.5-.5zM7.5 1.21 9.29 3H5.71zM13 12H2V4h11zM5 7a1 1 0 1 1 0-2 1 1 0 0 1 0 2zm7 4H4.5L6 8l1.25 2.5L9.5 6z"/></svg>
